X:6764520
T:Road to Boston Polska
C:Peter Yarensky, 12-9-20
H:This is a variation on Road to Boston that has been hinted at here and there
H:for years. I've attempted it in the past with some success, but this version
H:which came to me in the shower is the first I've heard or come up with that is
H:clearly Road to Boston as a hambo and that also sounds at least vaguely Swedish.
P:Sequence: AABBBB ~ End on an A Part
N:From NH Country Dance (URL below), along with many New England, Canadian & Swedish
N:tunes, and resources for abc notation and New England traditional music and dance.
%
N: Note #1: To preserve formatting (font, spacing, etc.), use the
N: file header at the URL below; just follow accompanying instructions.
%
N: Note #2: This abc code is optimized for use with abcm2ps, which is used by
N: EasyABC and other abc apps. To abc2svg for display or printing look to see if there
N: is a file optimized for abc2svg. If not you may need to adjust the spacing in places.
%
Z:abc-transcription Peter Yarensky. I rely heavily on careful listening to the
Z:named sources aided by software to hear details. While not perfect, known
Z:substantial differences from other written sources receive careful attention.
Z:abc-copyright Peter Yarensky. You may reproduce this tune freely but
Z:please include the entire abc file including all the notes.
%%writefields HQSD
U:s = !slide!
U:t = !trill!
F:Tunes Home Page - https://fiddle-tunes.nhcountrydance.com/
F:abc Header & its Usage - https://fiddle-tunes.nhcountrydance.com/header-page/
M:3/4
L:1/8
R:Scandinavian Polska
G:Scandinavian Tunes ~ Polskas & Hambos
N: Tune Tags ~ Polska, New Hampshire, Peter Yarensky, 12-9-20
K:D
"D" f2 f>d e>f    | "G" g2 g>f e>d | "A7" c2 c>A B>c | "D" d2 d>A F>A      |
"D" f2 f>d e>f    | "G" g2 g>f e>d | "A7" c2 c>A B>c | "A7/C#" .e2 "D" d4 :|
"D" a2 a>f g>a    | "G" b2 b>a g>f | "Em" g2 g>e f>g | "A7" a2 a>g f>e     |
"D/F#" f2 f>d e>f | "G" g2 g>f e>d | "A7" c2 c>A B>c | "A7/C#" .e2 "D" d4 :|

